!!!COA:	Josquin des Prez
!!!CDT:	~1450-1521/08/27
!!!COM: Mouton
!!!COA2: Willaert
!!!OTL@@LAT:	Queramus cum pastoribus
!!!OTL2@@LAT:	Ubi pascas
!!!AGN:	Motet
!!!SCT:	NJE 26.11
!!!SCA:	New Josquin Edition 26.11
!!!voices:	4
**kern	**kern	**kern	**kern
*staff4	*staff3	*staff2	*staff1
*Ivox	*Ivox	*Ivox	*Ivox
*I"Bassus	*I"Tenor	*I"Altus	*I"Superius
*I'B	*I'T	*I'A	*I'S
*clefF4	*clefGv2	*clefGv2	*clefG2
*k[b-]	*k[b-]	*k[b-]	*k[b-]
*M2/1	*M2/1	*M2/1	*M2/1
*met(C|)	*met(C|)	*met(C|)	*met(C|)
=1-	=1-	=1-	=1-
0r	0r	0f	0r
=2	=2	=2	=2
0r	0r	1f	0r
.	.	1c	.
=3	=3	=3	=3
0r	0r	1.f	0cc
.	.	2f\	.
=4	=4	=4	=4
0r	0r	1e	1cc
.	.	1d	1f
=5	=5	=5	=5
0r	0r	1c	1.cc
.	.	2r	.
.	.	2c\	2cc\
=6	=6	=6	=6
0r	0r	2d\	1b-
.	.	2e\	.
.	.	1f	1a
=7	=7	=7	=7
0r	0r	1e	1g
.	.	[1c	2r
.	.	.	2g/
=8	=8	=8	=8
0F	0r	1c]	2.a/
.	.	.	4b-\
.	.	2r	1cc
.	.	2c\	.
=9	=9	=9	=9
1F	0r	1d	1a
1C	.	1e	1g
=10	=10	=10	=10
1.F	0c	0f	2r
.	.	.	1a
2F\	.	.	4g/
.	.	.	4f/
=11	=11	=11	=11
1E	1c	1r	1g
1D	1F	2r	2f/
.	.	[2a\	[2ff\
=12	=12	=12	=12
1C	1.c	2a\]	2ff\]
.	.	4g\	4ee\
.	.	4f\	4dd\
2r	.	[1g	1ee
2C/	2c\	.	.
=13	=13	=13	=13
2D\	1B-	2g\]	1dd
2E\	.	2f\	.
1F	1A	1f	1cc
=14	=14	=14	=14
1E	1G	1g	1r
1C	2r	1e	[1cc
.	2G/	.	.
=15	=15	=15	=15
0r	2A/	2r	2cc\]
.	2B-\	2g\	4b-\
.	.	.	4a/
.	1c	1g	2g/
.	.	.	[2ee-\
=16	=16	=16	=16
0r	1A	1c	4ee-\]
.	.	.	4dd\
.	.	.	1cc
.	1G	1d	.
.	.	.	2b-\
=17	=17	=17	=17
0c	0r	2.e\	2a/
.	.	.	4g/
.	.	4d\	4f/
.	.	2e\	2g/
.	.	[2f\	[2a/
=18	=18	=18	=18
1c	1r	2f\]	2a/]
.	.	2e\	2g/
1F	[1f	2d\	1a
.	.	2c\	.
=19	=19	=19	=19
1.B-	1f]	1d	1r
.	1f	2r	1dd
2B-\	.	2d\	.
=20	=20	=20	=20
1A	1c	2e\	2cc\
.	.	2f\	2a/
1G	1r	[1d	1b-
=21	=21	=21	=21
1F	1.f	2d\]	2a/
.	.	2c\	1cc
1r	.	2A/	.
.	2f\	2B-\	4b-\
.	.	.	4a/
=22	=22	=22	=22
2r	1e	1c	1g
2C/	.	.	.
1D	1d	1A	2r
.	.	.	2f/
=23	=23	=23	=23
2E\	1c	2r	2g/
2F\	.	2c\	1a
1D	2r	1d	.
.	2F/	.	2b-\
=24	=24	=24	=24
2C/	2G/	2e\	2cc\
1F	1A	2f\	2.a/
.	.	1d	.
.	.	.	4g/
2BB-/	2B-\	.	[2f/
=25	=25	=25	=25
1C	1G	0c	2f/]
.	.	.	2e/
1r	[1F	.	2.f/
.	.	.	4g/
=26	=26	=26	=26
1F	1F]	1r	4a/
.	.	.	4b-\
.	.	.	1a
1F	1r	1c	.
.	.	.	4g/
.	.	.	4f/
=27	=27	=27	=27
2r	1r	1c	0e
2C/	.	.	.
2.C/	2r	1r	.
.	2c\	.	.
4D\	.	.	.
=28	=28	=28	=28
2E\	2c\	0r	1r
2F\	2c\	.	.
[1D	1d	.	2r
.	.	.	2f/
=29	=29	=29	=29
1D]	0r	2r	2.f/
.	.	2d\	.
.	.	.	4g/
1r	.	2d\	2a/
.	.	2d\	2b-\
=30	=30	=30	=30
2r	1r	0e	0g
2C/	.	.	.
2.C/	2r	.	.
.	2c\	.	.
4D\	.	.	.
=31	=31	=31	=31
2E\	2c\	0r	1r
2F\	2c\	.	.
[1D	1d	.	2r
.	.	.	2f/
=32	=32	=32	=32
1D]	0r	2r	2.f/
.	.	2d\	.
.	.	.	4g/
1r	.	2d\	2a/
.	.	2d\	2b-\
=33	=33	=33	=33
1C	1r	[0e;	[0g;
[1C;	1c	.	.
=34	=34	=34	=34
0C]	0c;	0e]	0g]
=35	=35	=35	=35
1F	1c	0r	0r
2E\	2c\	.	.
2D\	2d\	.	.
=36	=36	=36	=36
2.F\	2.c\	0r	0r
4E\	4c\	.	.
2F\	2c\	.	.
2G\	2B-\	.	.
=37	=37	=37	=37
1D	1A	1r	1r
1r	1r	1f	1cc
=38	=38	=38	=38
0r	0r	2e\	2cc\
.	.	2d\	2dd\
.	.	2.f\	2.cc\
.	.	4e\	4cc\
=39	=39	=39	=39
0r	0r	2f\	2cc\
.	.	2g\	2b-\
.	.	[1d	[1a
=40	=40	=40	=40
1r	1.f	1d]	1a]
[1B-	.	1r	1dd
.	2f\	.	.
=41	=41	=41	=41
2B-\]	1f	1.d	1b-
2B-\	.	.	.
1B-	1d	.	1b-
.	.	2B-\	.
=42	=42	=42	=42
1F	1r	1c	0a
1r	[1f	1d	.
=43	=43	=43	=43
1.B-	2f\]	1r	1dd
.	2f\	.	.
.	1f	[1d	1b-
2B-\	.	.	.
=44	=44	=44	=44
1B-	1d	2d\]	1b-
.	.	2B-\	.
1F	[1f	1c	[1a
=45	=45	=45	=45
1r	1f]	1d	1a]
[1c	1e	2.g\	1r
.	.	4f\	.
=46	=46	=46	=46
2c\]	2c\	2e\	1.g
2B-\	1d	2d\	.
2c\	.	2e\	.
2A\	[2c\	2c\	2f/
=47	=47	=47	=47
1G	2c\]	2d\	1g
.	2B-\	2e\	.
[1F	[1c	[1f	1a
=48	=48	=48	=48
1F]	1c]	0f_	1r
1r	1r	.	1cc
=49	=49	=49	=49
0r	1r	1f]	2cc\
.	.	.	2dd\
.	1f	1r	2.cc\
.	.	.	4cc\
=50	=50	=50	=50
0r	2f\	0r	2cc\
.	2g\	.	2b-\
.	2.f\	.	1a
.	4f\	.	.
=51	=51	=51	=51
0r	2f\	0r	2cc\
.	2e\	.	2cc\
.	1d	.	2dd\
.	.	.	2ff\
=52	=52	=52	=52
0r	2c\	0r	2ee\
.	2c\	.	4dd\
.	.	.	4cc\
.	2d\	.	4b-\
.	.	.	4a/
.	[2f\	.	[2dd\
=53	=53	=53	=53
1F	4f\]	0r	2dd\]
.	4e\	.	.
.	4d\	.	1cc
.	4c\	.	.
2F\	2.d\	.	.
2G\	.	.	2b-\
.	8c\L	.	.
.	8B-\J	.	.
=54	=54	=54	=54
2.F\	2.A/	0r	2.cc\
4F\	4F/	.	4b-\
2F\	4A/	.	2a/
.	4B-\	.	.
2E\	[2c\	.	2g/
=55	=55	=55	=55
1D	2c\]	1r	1f
.	2Bni\	.	.
1r	[1c	1g	[1e
=56	=56	=56	=56
1r	1c]	2g\	1e]
.	.	2a\	.
1c	1r	2.g\	1r
.	.	4g\	.
=57	=57	=57	=57
2c\	0r	2g\	0r
2d\	.	2f\	.
2.c\	.	1e	.
4c\	.	.	.
=58	=58	=58	=58
2B-\	0r	2f\	0r
2A\	.	2f\	.
1G	.	2g\	.
.	.	2b-\	.
=59	=59	=59	=59
2F\	0r	2a\	0r
2F\	.	4g\	.
.	.	4f\	.
2G\	.	4e\	.
.	.	4d\	.
[2B-\	.	[2g\	.
=60	=60	=60	=60
2B-\]	0r	2g\]	0r
2A\	.	1f	.
1G	.	.	.
.	.	2e\	.
=61	=61	=61	=61
1F	1r	1f	1r
2r	1A	1r	[1cc
2F\	.	.	.
=62	=62	=62	=62
1F	1.A	0f	1cc]
1D	.	.	1dd
.	4G/	.	.
.	4F/	.	.
=63	=63	=63	=63
1C	1c	1g	1ee
2r	2.F/	[1a	1cc
2F\	.	.	.
.	4G/	.	.
=64	=64	=64	=64
1F	4A/	1a]	1.ff
.	4B-\	.	.
.	1c	.	.
1D	.	1f	.
.	2Bni\	.	4ee\
.	.	.	4dd\
=65	=65	=65	=65
1C	2c\	1.g	1ee
.	2G/	.	.
[1G	2.B-\	.	2.dd\
.	.	2d\	.
.	4c\	.	4cc\
=66	=66	=66	=66
2G\]	1d	2g\	2b-\
2D\	.	2f\	2.a/
2E\	2B-\	2g\	.
.	.	.	4g/
2C/	2c\	2e\	[2g/
=67	=67	=67	=67
1D	1A	2.d\	2g/]
.	.	.	2f#i/
.	.	4c\	.
1G	[1G	4d\	[1g
.	.	4c\	.
.	.	4B-\	.
.	.	4A/	.
=68	=68	=68	=68
2r	1G]	2B-\	1g]
2C/	.	2c\	.
2.C/	2r	1G	1r
.	2c\	.	.
4D\	.	.	.
=69	=69	=69	=69
2E\	4c\	1r	2r
.	4B-\	.	.
2F\	4A/	.	2cc\
.	4G/	.	.
1D	2A/	2r	1ff
.	2B-\	2d\	.
=70	=70	=70	=70
2r	1c	1g	1ee
2C/	.	.	.
2.C/	2r	1e	1cc
.	2c\	.	.
4D\	.	.	.
=71	=71	=71	=71
2E\	4c\	1c	2r
.	4B-\	.	.
2F\	4A/	.	2cc\
.	4G/	.	.
1D	2A/	2r	1ff
.	2B-\	2d\	.
=72	=72	=72	=72
2r	1c	1g	1ee
2C/	.	.	.
1C	1G	2e\	2cc\
.	.	2c\	[2ee\
=73	=73	=73	=73
2G\	2B-\	2e\	4ee\]
.	.	.	4dd\
2A\	2c\	2f\	1cc
1G	1d	[1gl	.
.	.	.	2bni\
=74	=74	=74	=74
0Cl	0cl	0g]	0ccl
!!LO:LB:i:g=z
=75||	=75||	=75||	=75||
*>B	*>B	*>B	*>B
!!section: Secunda pars: Ubi pascas
!!!OMD: Secunda pars: Ubi pascas
*M2/1	*M2/1	*M2/1	*M2/1
*met(C|)	*met(C|)	*met(C|)	*met(C|)
0r	0r	0r	1.cc
.	.	.	2a/
=76	=76	=76	=76
0r	0r	0r	1b-
.	.	.	2a/
.	.	.	2b-\
=77	=77	=77	=77
0r	0r	1.f	1cc
.	.	.	1dd
.	.	2d\	.
=78	=78	=78	=78
0r	0r	1f	0cc
.	.	2e\	.
.	.	2f\	.
=79	=79	=79	=79
0r	1.c	1g	2r
.	.	.	1ee
.	.	1a	.
.	2A/	.	[2ff\
=80	=80	=80	=80
0r	1B-	0f	2ff\]
.	.	.	4ee\
.	.	.	4dd\
.	2A/	.	2cc\
.	2B-\	.	2dd\
=81	=81	=81	=81
1.F	1c	1r	1a
.	1d	[1a	1r
2D\	.	.	.
=82	=82	=82	=82
1F	0c	2a\]	1.cc
.	.	2a\	.
2E\	.	2g\	.
2F\	.	4f\	2a/
.	.	4e\	.
=83	=83	=83	=83
1G	0r	4d\	1b-
.	.	4c\	.
.	.	2d\	.
1A	.	1c	2.a/
.	.	.	4b-\
=84	=84	=84	=84
1F	0r	1.f	1cc
1r	.	.	1dd
.	.	2d\	.
=85	=85	=85	=85
0r	0r	1f	0cc
.	.	2e\	.
.	.	2f\	.
=86	=86	=86	=86
0r	1.c	1g	2r
.	.	.	1ee
.	.	1a	.
.	2A/	.	[2ff\
=87	=87	=87	=87
0r	1B-	0f	2ff\]
.	.	.	4ee\
.	.	.	4dd\
.	2A/	.	2cc\
.	2B-\	.	2dd\
=88	=88	=88	=88
1.F	1c	1r	1a
.	1d	[1a	1r
2D\	.	.	.
=89	=89	=89	=89
1F	1.c	2a\]	0r
.	.	2a\	.
2E\	.	2g\	.
2F\	2A/	4f\	.
.	.	4e\	.
=90	=90	=90	=90
1G	2.B-\	4d\	1r
.	.	4c\	.
.	.	2d\	.
.	4A/	.	.
1A	1F	1c	[1a
=91	=91	=91	=91
0F	1.c	1.f	2a/]
.	.	.	2a/
.	.	.	1a
.	2c\	2f\	.
=92	=92	=92	=92
1r	1c	1e	1g
[1F	1A	1c	[1a
=93	=93	=93	=93
2F\]	1.c	1.f	2a/]
2F\	.	.	2a/
1F	.	.	1a
.	2c\	2f\	.
=94	=94	=94	=94
1C	1c	1e	2.g/
.	.	.	4a/
2.G\	2.B-\	1d	4b-\
.	.	.	4cc\
.	.	.	[2dd\
4A\	4c\	.	.
=95	=95	=95	=95
2B-\	4d\	2r	2dd\]
.	4e\	.	.
2A\	1f	2c\	2cc\
1G	.	2d\	2b-\
.	2e\	2e\	4a/
.	.	.	4g/
=96	=96	=96	=96
1F	2d\	0f	0a
.	2c\	.	.
1r	[1d	.	.
=97	=97	=97	=97
1BB-	1d]	2r	1b-
.	.	2f\	.
2.C/	1c	2.e\	1g
4D\	.	4d\	.
=98	=98	=98	=98
2E\	2r	2c\	2r
2F\	2A/	2c\	2f/
1D	2.A/	1d	2.f/
.	4B-\	.	4g/
=99	=99	=99	=99
2r	2c\	2r	2a/
2BB-/	2d\	2f\	2b-\
2.C/	[1c	2.e\	2g/
.	.	.	[2cc\
4D\	.	4f\	.
=100	=100	=100	=100
2E\	1c]	2g\	4cc\]
.	.	.	4b-\
2F\	.	1c	2.a/
1D	1F	.	.
.	.	.	4g/
.	.	2B-\	[2f/
=101	=101	=101	=101
1C	1G	1.c	2f/]
.	.	.	2e/
1F	2.F/	.	[1f
.	.	4B-\	.
.	4G/	4A/	.
=102	=102	=102	=102
1r	2A/	2c\	0f_
.	2B-\	2d\	.
2.F\	2.c\	1A	.
4G\	4B-\	.	.
=103	=103	=103	=103
2A\	2c\	1r	1f]
2.B-\	2.d\	.	.
.	.	2r	1r
4A\	4c\	.	.
4G\	4B-\	2d\	.
4F\	4A/	.	.
=104	=104	=104	=104
1G	1B-	2d\	1r
.	.	2e\	.
1D	1A	1f	2r
.	.	.	2a/
=105	=105	=105	=105
0r	1r	2f\	2a/
.	.	2g\	2b-\
.	2r	1a	1cc
.	2A/	.	.
=106	=106	=106	=106
0r	2A/	1f	2cc\
.	2B-\	.	2dd\
.	2.c\	2r	1ee
.	.	[2g\	.
.	4d\	.	.
=107	=107	=107	=107
0r	2e\	2g\]	1.cc
.	2.f\	2.a\	.
.	4e\	4g\	.
.	4d\	4f\	4b-\
.	4c\	4e\	4a/
=108	=108	=108	=108
0r	2d\	2f\	2b-\
.	2e\	2g\	2cc\
.	2c\	2e\	2a/
.	2d\	2f\	[2b-\
=109	=109	=109	=109
2r	2c\	2e\	2b-\]
2D\	2A/	1f	1a
2D\	1B-	.	.
2E\	.	4e\	2g/
.	.	4d\	.
=110	=110	=110	=110
1F	2r	1c	1a
.	2A/	.	.
2F\	2A/	1r	1r
2G\	2B-\	.	.
=111	=111	=111	=111
1A	1c	0r	0r
2F\	2c\	.	.
2B-\	2d\	.	.
=112	=112	=112	=112
2A\	1e	1r	0r
2G\	.	.	.
2.A\	1c	2r	.
.	.	2f\	.
4A\	.	.	.
=113	=113	=113	=113
2A\	0r	2e\	2r
2B-\	.	2d\	2b-\
1c	.	2.e\	2a/
.	.	.	2g/
.	.	4e\	.
=114	=114	=114	=114
1r	0r	2e\	2.cc\
.	.	2f\	.
.	.	.	4cc\
2r	.	2.g\	2b-\
2G\	.	.	2a/
.	.	4f\	.
=115	=115	=115	=115
2.c\	0r	4e\	2.g/
.	.	4d\	.
.	.	2e\	.
4c\	.	.	4a/
2B-\	.	2.d\	2b-\
2A\	.	.	[2cc\
.	.	4c\	.
=116	=116	=116	=116
1G	2r	1d	2cc\]
.	2B-\	.	2b-\
2r	2A/	1e	1cc
2C/	2G/	.	.
=117	=117	=117	=117
2F\	2.A/	1c	2r
2F\	.	.	2cc\
.	4A/	.	.
2D\	2A/	1r	2ff\
2D\	2B-\	.	2ff\
=118	=118	=118	=118
1C	0c	1r	2.ee\
.	.	.	4dd\
1r	.	2.e\	1cc
.	.	4e\	.
=119	=119	=119	=119
0r	0r	2d\	2.a/
.	.	2f\	.
.	.	.	4a/
.	.	2e\	2g/
.	.	2d\	2b-\
=120	=120	=120	=120
0r	2.e\	1c	2a/
.	.	.	2g/
.	4e\	.	.
.	2d\	1r	2f/
.	2f\	.	2cc\
=121	=121	=121	=121
1r	2e\	1r	2cc\
.	2d\	.	2b-\
2.A\	1c	2.e\	1cc
4A\	.	4f\	.
=122	=122	=122	=122
2G\	2r	2g\	0r
2B-\	2d\	2f\	.
2A\	2c\	2f\	.
2G\	2B-\	2e\	.
=123	=123	=123	=123
2F\	1c	2f\	0r
2c\	.	2g\	.
2c\	1r	2e\	.
2B-\	.	2d\	.
=124	=124	=124	=124
1c	2.e\	1g	1r
.	4e\	.	.
1r	2d\	1r	2.a/
.	2f\	.	.
.	.	.	4a/
=125	=125	=125	=125
0r	2e\	1r	2g/
.	2d\	.	2b-\
.	1c	2.e\	2a/
.	.	.	2g/
.	.	4e\	.
=126	=126	=126	=126
0r	0r	2d\	2f/
.	.	2f\	2cc\
.	.	2e\	2cc\
.	.	2d\	2b-\
=127	=127	=127	=127
2.A\	2.e\	1c	1cc
4A\	4f\	.	.
2G\	2g\	2r	1r
2B-\	2f\	2d\	.
=128	=128	=128	=128
2A\	2f\	2c\	1r
2G\	2e\	2B-\	.
[1F	1f	1c	2r
.	.	.	2cc\
=129	=129	=129	=129
1F]	2r	1a	2.cc\
.	2c\	.	.
.	.	.	4dd\
2r	1c	2g\	2ee\
2F\	.	2a\	2ff\
=130	=130	=130	=130
1B-	1d	4f\	1dd
.	.	4e\	.
.	.	4f\	.
.	.	4g\	.
1A	1e	1a	2r
.	.	.	2cc\
=131	=131	=131	=131
1F	2r	2r	2.cc\
.	2c\	2a\	.
.	.	.	4dd\
2r	1c	2g\	2ee\
2F\	.	2a\	2ff\
=132	=132	=132	=132
1B-	1d	4f\	1dd
.	.	4e\	.
.	.	4f\	.
.	.	4g\	.
1A	2e\	[1a	2r
.	[2f\	.	2cc\
=133	=133	=133	=133
1.F	2f\]	2a\]	2.cc\
.	4e\	2g\	.
.	4d\	.	4b-\
.	1c	2f\	2a/
2C/	.	2e\	[2g/
=134	=134	=134	=134
2D\	2A/	1d	4g/]
.	.	.	4f/
2BB-/	2B-\	.	1f
1C	1G	[1cl	.
.	.	.	2e/
=135	=135	=135	=135
0Fl	0Fl	0c]	0fl
==	==	==	==
*-	*-	*-	*-
!!!RDF**kern: %=rational rhythm
!!!rscale-alt: 1/2
!!!RDF**kern: V=start of tuplet marker
!!!RDF**kern: Z=end of tuplet marker
!!!RDF**kern: l=long note in original notation
!!!RDF**kern: i=editorial accidental
!!!ENC:	Will Watson 20/07/2011
!!!END:	2011/07/20/
!!!EED:	Jesse Rodin
!!!EEV:	2011/11/03/
!!attribution-level@Jos: 6 (very doubtful)
!!!ONB:	Translated from MusicXML and edited on 2011/11/03/ by Craig Sapp
!!muse2ps: u^(2) @{OTL2}^C^@{COA}?\n@{SCT}^i2I150v90,90,90,150c90Q16
